X:209
T:Rip the Calico
T:Tear the Calico
R:reel
D:Bothy Band: Out of the Wind, Into the Sun
Z:id:hn-reel-209
M:C|
K:D
~d3c defd|ed (3Bcd egfe|~d3c defd|efdB ~A3B:|
|:dB~B2 gefd|ed (3Bcd egfe|dB~B2 gefd|1 efdB ~A3B:|2 efdB ~A3e||
|:faaf gefd|ed (3Bcd egfe|1 fa~a2 gefd|efdB ~A3e:|2 fa~a2 bfaf|~e3f gefe||
